X:10
T:10 The New Speed The Plough
C:Welch MS
N:bar2 1st E dotted in STB, presumably by mistake
I:abc2nwc
M:C
L:1/8
K:G
G3/2D/2B,3/2D/2 G3/2B/2d3/2B/2|c3/2e/2g3/2e/2 d3/2B/2A3/2G/2|c3/2e/2c3/2A/2 B3/2d/2B3/2G/2|F3/2G/2A3/2B/2 A2A2|
G3/2D/2B,3/2D/2 G3/2B/2d3/2B/2|c3/2e/2g3/2e/2 d3/2B/2A3/2G/2|c3/2e/2c3/2A/2 B3/2d/2B3/2G/2|c3/2A/2F3/2A/2 G2G2:|
G3/2G/2G3/2G/2 G3/2B/2d3/2g/2|G3/2G/2G3/2G/2 A3/2F/2E3/2D/2|G3/2G/2G3/2G/2 G3/2B/2d3/2g/2|e3/2d/2c3/2B/2 A2A2|
G3/2G/2G3/2G/2 G3/2B/2d3/2g/2|G3/2G/2G3/2G/2 A3/2F/2E3/2D/2|G3/2G/2G3/2G/2 G3/2B/2d3/2g/2|c3/2A/2F3/2A/2 G2G2:|

